!!!COM: Claude Goudimel
!!!OMD: Psalm 66: Or sus, louez Dieu tout le monde
**kern	**kern	**kern	**kern
*part4	*part3	*part2	*part1
*staff4	*staff3	*staff2	*staff1
*clefF4	*clefGv2	*clefG2	*clefG2
*k[f#]	*k[f#]	*k[f#]	*k[f#]
!!LO:TX:omd:t=
*M4/4	*M4/4	*M4/4	*M4/4
=1	=1	=1	=1
2GG	2B	2d	2g
4AA	4A	4c	4e
4BB	4F#X	4B	4d
=2	=2	=2	=2
4C	4E	4e	4g
4E	4B	4e	4g
4D	4d	4f#	4a
4AA	4e	[4a	4cc
=3	=3	=3	=3
2E	2e	4a]	2b
.	.	4g#X	.
2AA	2e	2a	2a
=4	=4	=4	=4
2r	2r	2r	2r
2GG	2g	2b	2dd
=5	=5	=5	=5
4GG	4d	4g	4b
4GG	4d	4g	4b
4C	4c	4e	4g
4AA	4e	[4a	4cc
=6	=6	=6	=6
2BB	2d	4a]	2b
.	.	2g	.
2D	2d	.	2a
.	.	4f#	.
=7	=7	=7	=7
2GG	2B	2g	2g
2r	2r	2r	2r
=8	=8	=8	=8
2GG	2B	2d	2g
4AA	4A	4c	4e
4BB	4F#X	4B	4d
=9	=9	=9	=9
4C	4E	4e	4g
4E	4B	4e	4g
4D	4d	4f#	4a
4AA	4e	4a	4cc
=10	=10	=10	=10
2E	2e	2g	2b
[2AA	[2c#X	[2e	[2a
=11	=11	=11	=11
4AA]	4c#]	4e]	4a]
4r	4r	4r	4r
2GG	2B	2g	2dd
=12	=12	=12	=12
4C	4G	4e	4cc
4GG	4G	4d	4b
4D	4F#X	4d	4a
4E	4G	4B	4g
=13	=13	=13	=13
4D	4A	4d	4g
4D	4A	4d	4f#
2GG	2B	2d	2g
=14	=14	=14	=14
2r	2r	2r	2r
2G	2B	2g	2dd
=15	=15	=15	=15
4G	4B	4g	4dd
4C	4e	4g	4cc
2G	2d	2g	2b
=16	=16	=16	=16
4D	4d	4f#	2a
4AA	2c	2e	.
4C	.	.	4g
4D	4A	[4d	4f#
=17	=17	=17	=17
2AA	2A	4d]	2e
.	.	4c#X	.
2D	2A	2d	2d
=18	=18	=18	=18
2r	2r	2r	2r
2GG	2G	2B	2d
=19	=19	=19	=19
4GG	4B	4d	4g
4GG	4B	4d	4g
4D	4A	4d	4f#
4AA	[4A	4c	4e
=20	=20	=20	=20
2E	4A]	2B	2g
.	2G	.	.
2D	.	2d	2a
.	4F#X	.	.
=21	=21	=21	=21
2GG	2G	2d	2b
2r	2r	2r	2r
=22	=22	=22	=22
2G	2B	2d	2g
4E	4B	4e	4g
4D	4d	4f#	4a
=23	=23	=23	=23
4G	4d	4g	4b
4C	4c	4e	4g
4AA	4e	4a	4cc
4C	4e	4g	4cc
=24	=24	=24	=24
2GG	2d	2g	2b
2D	2d	2f#	2a
=25	=25	=25	=25
2r	2r	2r	2r
2GG	2B	2g	2dd
=26	=26	=26	=26
4C	4G	4e	4cc
4GG	4G	4d	4b
4D	4F#X	4d	4a
4E	4G	4B	4g
=27	=27	=27	=27
4D	4A	4d	4g
4D	4A	4d	4f#
2GG	2B	2d	2g
=28	=28	=28	=28
2r	2r	2r	2r
2GG	2B	2d	2g
=29	=29	=29	=29
4AA	4A	4c	4e
4BB	4F#X	4B	4d
4C	4E	4e	4g
4E	4B	4e	4g
=30	=30	=30	=30
4D	4d	4f#	4a
4AA	4e	2a	4cc
2E	2e	.	2b
.	.	4g#X	.
=31	=31	=31	=31
2AA	2e	2a	2a
2r	2r	2r	2r
=32	=32	=32	=32
2GG	2g	2b	2dd
4GG	4d	4g	4b
4GG	4d	4g	4b
=33	=33	=33	=33
4C	4c	4e	4g
4AA	4e	2a	4cc
2BB	2d	.	2b
.	.	[4g	.
=34	=34	=34	=34
2D	2d	4g]	2a
.	.	4f#	.
2GG	2B	2g	2g
=35	=35	=35	=35
2r	2r	2r	2r
2GG	2B	2d	2g
=36	=36	=36	=36
4AA	4A	4c	4e
4BB	4F#X	4B	4d
4C	4E	4e	4g
4E	4B	4e	4g
=37	=37	=37	=37
4D	4d	4f#	4a
4AA	4e	4a	4cc
2E	2e	2g	2b
=38	=38	=38	=38
2AA	2c#X	2e	2a
2r	2r	2r	2r
=39	=39	=39	=39
2GG	2B	2g	2dd
4C	4G	4e	4cc
4GG	4G	4d	4b
=40	=40	=40	=40
4D	4F#X	4d	4a
4E	4G	4B	4g
4D	4A	4d	4g
4D	4A	4d	4f#
=41	=41	=41	=41
2GG	2B	2d	2g
2r	2r	2r	2r
=42	=42	=42	=42
2G	2B	2g	2dd
4G	4B	4g	4dd
4C	4e	4g	4cc
=43	=43	=43	=43
2G	2d	2g	2b
4D	4d	4f#	2a
4AA	[4c	[4e	.
=44	=44	=44	=44
4C	4c]	4e]	4g
4D	4A	2d	4f#
2AA	2A	.	2e
.	.	4c#X	.
=45	=45	=45	=45
2D	2A	2d	2d
2r	2r	2r	2r
=46	=46	=46	=46
2GG	2G	2B	2d
4GG	4B	4d	4g
4GG	4B	4d	4g
=47	=47	=47	=47
4D	4A	4d	4f#
4AA	2A	4c	4e
2E	.	2B	2g
.	[4G	.	.
=48	=48	=48	=48
2D	4G]	2d	2a
.	4F#X	.	.
2GG	2G	2d	2b
=49	=49	=49	=49
2r	2r	2r	2r
2G	2B	2d	2g
=50	=50	=50	=50
4E	4B	4e	4g
4D	4d	4f#	4a
4G	4d	4g	4b
4C	4c	4e	4g
=51	=51	=51	=51
4AA	4e	4a	4cc
4C	4e	4g	4cc
2GG	2d	2g	2b
=52	=52	=52	=52
2D	2d	2f#	2a
2r	2r	2r	2r
=53	=53	=53	=53
2GG	2B	2g	2dd
4C	4G	4e	4cc
4GG	4G	4d	4b
=54	=54	=54	=54
4D	4F#X	4d	4a
4E	4G	4B	4g
4D	4A	4d	4g
4D	4A	4d	4f#
=55	=55	=55	=55
1GG	1B	1d	1g
==	==	==	==
*-	*-	*-	*-
!!!software: music21 v.9.7.1
!!!software: music21 v.8.3.0
!!!RDF**kern: > = above
!!!RDF**kern: < = below
